src/pos-icons/book-play-outline.svg

<svg height="24" viewBox="0 0 24 24" width="24" xmlns="http://www.w3.org/2000/svg"><path d="m17 16 5 3-5 3zm1-14a2 2 0 0 1 2 2v11.42l-2-1.15v-10.27h-5v8l-2.5-2.25-2.5 2.25v-8h-2v16h9v2h-9a2 2 0 0 1 -2-2v-16a2 2 0 0 1 2-2z"/></svg>

<?xml version="1.0" encoding="UTF-8"?><!DOCTYPE svg PUBLIC "-//W3C//DTD SVG 1.1//EN" "http://www.w3.org/Graphics/SVG/1.1/DTD/svg11.dtd"><svg xmlns="http://www.w3.org/2000/svg" xmlns:xlink="http://www.w3.org/1999/xlink" version="1.1" id="mdi-book-play-outline" width="24" height="24" viewBox="0 0 24 24"><path d="M17,16L22,19L17,22V16M18,2A2,2 0 0,1 20,4V15.42L18,14.27V4H13V12L10.5,9.75L8,12V4H6V20H15V22H6A2,2 0 0,1 4,20V4A2,2 0 0,1 6,2H18Z" /></svg>
